X:1
T:D minor Daniel Belknap, 1792
T:Isaac Watts, 1709 (Hymn 44, Book 1)  88. 88. (L. M.)
T:Framingham
T:Transcribed from The Federal Harmony, 1793.
%%score [ 1 2 3 4 ]
L:1/8
M:3/2
K:F
V:1 treble nm="Treble" snm="Tr"
V:2 treble nm="Counter" snm="C"
V:3 treble-8 nm="Tenor" snm="T"
V:4 bass nm="Bass" snm="B"
V:1
"^1. He dies!  the  friend    of     sin   –   ners   dies!  Lo!  Sa   –   lem's  daughters    weep around; A  solemn  darkness" A4 | %1
 A8 A4 | (A4 G4) A4 | (A4 B4) A4 | A8 A4 | (A3 B c4) d4 | A8 c4 | d8 c4 | c8 A4 | A8 A4 | %10
 (A3 B c4) c4 | %11
"^1. veils     the skies; A     sudden      trembling       shakes            the      ground.                Come, saints, and drop a tear or" (A3 B c4) d4 | %12
 A8 A4 | (A4 G4) G4 | (F3 G A4) A4 | (F2 A2 B4) A4 | A12 |:[M:2/2] z4 A2 AA | A3 A A2 d2 | %19
"^1. two For him who groaned beneath your load: He shed  a thousand drops for you, A thousand drops of richer blood." c2 c2 d2 AG | %20
 A3 G F2 F2 | A3 A ABAB | A>GFG A2 A2 | c2 c2 A2 G2 | F2 A2 B2 A2 | A8 :| %26
V:2
"^2. Here's love and grief   beyond          degree, The Lord         of     glo      –      ry   dies for men!  But lo! what sudden" D4 | %1
 F8 E4 | (F4 G4) A4 | (A4 G2 F2) E4 | F8 F4 | (A4 E3 F) G4 | A8 (A3 G) | F8 E4 | F8 F4 | A8 A4 | %10
 A8 A4 | %11
"^2. joys       we   see;   Jesus        the dead         re –  vives                   a  –   gain!                         The  rising  God  forsakes the" (A4 G4) A4 | %12
 A8 A4 | (A4 B4) B4 | A8 A4 | (A4 G4) (F2 E2) | F12 |:[M:2/2] z4 F2 FE | F3 G F2 D2 | %19
"^2. tomb! The tomb in vain forbids his rise;  Cherubic  legions guard him home, And shout him welcome to the skies." E2 E2 F2 G2 | %20
 A>GFG A2 A2 | A3 A ([CE]2 A)A | A3 G A2 A2 | A2 E2 F2 G2 | A2 A2 GF E2 | F8 :| %26
V:3
"^3. Break off your fears,  ye   saints,     and tell  How high       our   great   Deliv'rer reigns; Sing how he spoiled the" A4 | %1
 (A4 d4) e4 | (f3 e d4) ^c4 | (d3 f e2 d2) ^c4 | d8 d4 | (c3 B A4) G4 | (A3 G F4) E4 | F8 G4 | %8
 A8 A4 | (d4 e4) e4 | (e4 f4) f4 | %11
"^3. hosts      of  hell, And  led     the    mon  –  ster     death             in       chains.                      Say, \"Live for ever,     wondrous" (f4 g4) f4 | %12
 e8 e4 | (f4 e4) d4 | (c3 B A4) d4 | (c2 de f2 e2) (d3 c) | d12 |:[M:2/2] z4 A2 dc | d3 ^c d2 f2 | %19
"^3. King!  Born to redeem,        and strong to save;   Then ask the monster, \"Where's thy sting?\"  And, \"Where's thy vict'ry, boasting Grave?\"" e2 e2 d2 c2 | %20
 d3 ^c d2 f2 | e3 c cBAG | (A2 d)c d2 f2 | e2 e2 d2 c2 | d2 f2 ed c2 | d8 :| %26
V:4
 D,4 | D,8 A,,4 | (D,4 G,4) A,4 | F,4 G,4 A,4 | D,8 D,4 | A,8 G,4 | (F,3 E, D,4) A,,4 | D,8 C,4 | %8
 F,8 D,4 | (D,4 A,4) A,4 | (A,3 G, F,4) F,4 | (F,4 E,4) D,4 | [A,,A,]8 [A,,A,]4 | (F,4 G,4) G,4 | %14
 (A,3 G, F,4) D,4 | (F,4 G,4) A,4 | D,12 |:[M:2/2] z4 D,2 D,A,, | D,3 ^C, D,2 D,2 | %19
 A,2 A,2 F,2 E,2 | D,3 ^C, D,2 D,2 | A,3 A, A,G,F,E, | (D,2 F,)E, D,2 D,2 | A,2 A,2 F,2 E,2 | %24
 D,2 F,2 G,2 A,2 | D,8 :| %26

